!! 00000] TT[WS
!!!OTL: Bubu qiang
!!!ARE: Asia, China,ÿShanxi Heshun
!! Ethnic Group: Han
!! WI, 84
!!!SCT: J0101
!!!YEM: Copyright 1995, estate of Helmut Schaffrath.
**kern
*ICvox
*Ivox
*M4/4
*k[b-e-a-]
*E-:
{8f
8g
2b-
4r
=1
8g
8b-
8cc
8ee-
4b-
8a-
8g
=2
8f
8g
8f
8e-
8c
8e-
8f
8g
=3
8g
4e-
8f
2e-}
=4
{4f
4b-
8f
8g
8f
8e-
=5
4.c
8e-
4.f
8g
=6
8e-
8f
8e-
8c
4.B-
8c
=7
2B-}
{4e-
8B-
8c
=8
8e-
8f
8d
8c
2B-
=9
8b-
8g
8f
8g
4b-
8ee-
8cc
=10
4b-
8a-
8g
8f
8g
8f
8e-
=11
8c
8e-
8f
8g
8g
4e-
8f
=12
2e-}
{4.f
8b-
=13
8g
8b-
8g
8e-
2f
=14
8g
8g
8g
8e-
2f}
=15
{8f
8g
2b-
4r
=16
8g
8b-
8cc
8ee-
4b-
8a-
8g
=17
8f
8g
8f
8e-
8c
8e-
8f
8g
=18
8g
4e-
8f
2e-}
=19
{4.f
8b-
8g
8g
8g
8e-
=20
2f
4c
4f
=21
4d
4c
4.e-
8c
=22
2e-}
{4f
8c
8d
=23
8c
8B-
8A-
8G
4B-
8c
8d
=24
8c
8B-
8G
8F
2E-}
==
!!!AGN: Xiaodiao. Qingge, Aisu
!!!ONB: ESAC (Essen Associative Code) Database: CHINA
!!!AMT: simple quadruple
!!!AIN: vox
!!!EED: Helmut Schaffrath
!!!EEV: 1.0
*-
